src/assets/icons/adwaita/mimetypes/application-x-spectrum.svg

<?xml version="1.0" encoding="UTF-8" standalone="no"?>
<svg
   height="128px"
   viewBox="0 0 128 128"
   width="128px"
   version="1.1"
   id="application_x_spectrum_svg7"
   xml:space="preserve"
   xmlns:xlink="http://www.w3.org/1999/xlink"
   xmlns="http://www.w3.org/2000/svg"
   xmlns:svg="http://www.w3.org/2000/svg"><defs
     id="application_x_spectrum_defs7"><linearGradient
       gradientTransform="translate(0,-160.00001)"
       xlink:href="#application_x_spectrum_a-6"
       id="application_x_spectrum_linearGradient1640"
       x1="8"
       y1="264"
       x2="120"
       y2="264"
       gradientUnits="userSpaceOnUse" /><clipPath
       clipPathUnits="userSpaceOnUse"
       id="application_x_spectrum_clipPath904"><rect
         y="4"
         x="208"
         height="48"
         width="96"
         id="application_x_spectrum_rect906"
         style="opacity:1;fill:#949390;fill-opacity:1;stroke:none;stroke-width:15.99999905;stroke-linecap:round;stroke-linejoin:round;stroke-miterlimit:4;stroke-dasharray:none;stroke-dashoffset:11.19999981;stroke-opacity:1" /></clipPath><linearGradient
       id="application_x_spectrum_a-6"
       gradientUnits="userSpaceOnUse"
       x1="9.1972656"
       x2="119.48238"
       y1="112.65527"
       y2="112.65527"
       gradientTransform="translate(-147,5)"><stop
         offset="0"
         stop-color="#5e5c64"
         id="application_x_spectrum_stop1-1"
         style="stop-color:#606060;stop-opacity:1;" /><stop
         offset="0.0378502"
         stop-color="#77767b"
         id="application_x_spectrum_stop2-8"
         style="stop-color:#797979;stop-opacity:1;" /><stop
         offset="0.0732786"
         stop-color="#3d3846"
         id="application_x_spectrum_stop3-7"
         style="stop-color:#333333;stop-opacity:1;" /><stop
         offset="0.92921001"
         stop-color="#241f31"
         id="application_x_spectrum_stop4-9"
         style="stop-color:#000000;stop-opacity:1;" /><stop
         offset="0.97104001"
         stop-color="#5e5c64"
         id="application_x_spectrum_stop5-2"
         style="stop-color:#606060;stop-opacity:1;" /><stop
         offset="1"
         stop-color="#5e5c64"
         id="application_x_spectrum_stop6-0"
         style="stop-color:#606060;stop-opacity:1;" /></linearGradient></defs><rect
     style="display:inline;fill:url(#application_x_spectrum_linearGradient1640);fill-opacity:1;stroke:none;stroke-width:0.25;stroke-linejoin:round;stroke-miterlimit:4;stroke-dasharray:1, 0.5;stroke-dashoffset:0;stroke-opacity:1;enable-background:new"
     id="application_x_spectrum_rect1025"
     width="112"
     height="24"
     x="8"
     y="92"
     rx="8"
     ry="8" /><rect
     ry="8.8421059"
     rx="8"
     y="28"
     x="8"
     height="83.999992"
     width="112"
     id="application_x_spectrum_rect927-7"
     style="display:inline;fill:#36343d;fill-opacity:1;stroke:none;stroke-width:0.262829;stroke-linejoin:round;stroke-miterlimit:4;stroke-dasharray:1.05131, 0.525657;stroke-dashoffset:0;stroke-opacity:1;enable-background:new" /><path
     id="application_x_spectrum_path1083-9"
     d="m 36,109.99999 h 56 l -4,-10 H 40 Z"
     style="display:inline;fill:#202023;fill-opacity:1;stroke:#202023;stroke-width:8;stroke-linecap:round;stroke-linejoin:round;stroke-opacity:1;enable-background:new"
     clip-path="none" /><path
     id="application_x_spectrum_path1203-6"
     d="m 24,35.99999 h 80 l 8,8 V 96 H 16 V 43.99999 Z"
     style="display:inline;fill:#9a9996;fill-opacity:1;stroke:none;stroke-width:0.25;stroke-linejoin:round;stroke-miterlimit:4;stroke-dasharray:1, 0.5;stroke-dashoffset:0;stroke-opacity:1;enable-background:new" /><g
     id="application_x_spectrum_g1565"
     style="display:inline;enable-background:new"
     transform="translate(0,-164.00001)"><rect
       style="display:inline;opacity:1;fill:#424048;fill-opacity:1;stroke:none;stroke-width:1.06904;stroke-linecap:butt;stroke-linejoin:round;stroke-miterlimit:4;stroke-dasharray:none;stroke-dashoffset:0;stroke-opacity:1;enable-background:new"
       id="application_x_spectrum_rect1050"
       width="96"
       height="31.999985"
       x="16"
       y="216.00002" /><circle
       style="display:inline;opacity:1;fill:#f6f5f4;fill-opacity:1;stroke:none;stroke-width:0.25;stroke-linejoin:round;stroke-miterlimit:4;stroke-dasharray:1, 0.5;stroke-dashoffset:0;stroke-opacity:1;enable-background:new"
       id="application_x_spectrum_path1060-5"
       cx="39.999992"
       cy="232"
       r="6" /><circle
       r="6"
       cy="232"
       cx="87.999992"
       id="application_x_spectrum_circle1062-6"
       style="display:inline;opacity:1;fill:#f6f5f4;fill-opacity:1;stroke:none;stroke-width:0.25;stroke-linejoin:round;stroke-miterlimit:4;stroke-dasharray:1, 0.5;stroke-dashoffset:0;stroke-opacity:1;enable-background:new" /><rect
       style="display:inline;opacity:1;fill:#949390;fill-opacity:1;stroke:none;stroke-width:4;stroke-linecap:round;stroke-linejoin:round;stroke-miterlimit:4;stroke-dasharray:none;stroke-dashoffset:11.2;stroke-opacity:1;enable-background:new"
       id="application_x_spectrum_rect1271-3"
       width="24"
       height="12"
       x="51.999992"
       y="226" /><path
       transform="matrix(0.25,0,0,0.25,-4.5e-6,225.00001)"
       style="display:inline;opacity:0.5;fill:#424048;fill-opacity:1;stroke:none;stroke-width:1;stroke-linejoin:round;stroke-miterlimit:4;stroke-dasharray:4, 2;stroke-dashoffset:0;stroke-opacity:1;enable-background:new"
       clip-path="url(#application_x_spectrum_clipPath904)"
       d="M 272,28 C 272,89.855892 221.85589,140 160,140 98.144108,140 48,89.855892 48,28 48,-33.855892 98.144108,-84 160,-84 c 61.85589,0 112,50.144108 112,112 z"
       id="application_x_spectrum_ellipse900" /></g><path
     style="fill:#202023;stroke-width:0.53919;fill-opacity:1"
     d="m 40.50204,39.375 2.69595,4.313518 -2.69595,4.313519 h 2.15676 l 1.61757,-2.588651 1.61757,2.588651 H 48.0507 L 45.35475,43.688518 48.0507,39.375 H 45.89395 L 44.27637,41.96365 42.65881,39.375 Z m -8.62704,0 h 7.54866 v 1.078379 l -4.85271,5.931089 h 4.85271 v 1.617569 H 31.875 v -1.07838 l 4.85271,-5.931088 H 31.875 Z"
     id="application_x_spectrum_path18-2-3" /><path
     id="application_x_spectrum_path8-5-6"
     style="fill:#f24c3d;stroke-width:0.852459;opacity:0.7"
     d="M 93.064453 101.88867 L 91.714844 98.513672 A 4.0004 4.0004 0 0 0 89.673828 96.416016 L 76.138672 110 L 84.941406 110 L 93.064453 101.88867 z " /><path
     id="application_x_spectrum_path18"
     style="fill:#f24c3d;stroke-width:0.852459"
     d="M 112 82.980469 L 120 74.992188 L 120 65.982422 L 112 74.011719 L 112 82.980469 z " /><path
     id="application_x_spectrum_path27"
     style="fill:#f24c3d;stroke-width:0.852459"
     d="M 90.087891 96 L 89.673828 96.416016 A 4.0004 4.0004 0 0 1 91.714844 98.513672 L 93.064453 101.88867 L 98.960938 96 L 90.087891 96 z " /><path
     id="application_x_spectrum_path26"
     style="fill:#f24c3d;stroke-width:0.852459;opacity:0.6"
     d="M 90.087891 96 L 98.960938 96 L 112 82.980469 L 112 74.011719 L 90.087891 96 z " /><path
     id="application_x_spectrum_path10-9-1"
     style="fill:#e6df15;stroke-width:0.852459;opacity:0.7"
     d="M 95.484375 107.93555 L 92.982422 101.68164 L 84.664062 110 L 93.410156 110 L 95.484375 107.93555 z " /><path
     id="application_x_spectrum_path19"
     style="fill:#e6df15;stroke-width:0.852459"
     d="M 112 91.486328 L 120 83.517578 L 120 74.664062 L 112 82.664062 L 112 91.486328 z " /><path
     id="application_x_spectrum_path25"
     style="fill:#e6df15;stroke-width:0.852459"
     d="M 98.664062 96 L 92.982422 101.68164 L 95.484375 107.93555 L 107.4668 96 L 98.664062 96 z " /><path
     id="application_x_spectrum_path24"
     style="fill:#e6df15;stroke-width:0.852459;opacity:0.6"
     d="M 98.664062 96 L 107.4668 96 L 112 91.486328 L 112 82.664062 L 98.664062 96 z " /><path
     id="application_x_spectrum_path12-2-8"
     style="fill:#66dd23;stroke-width:0.852459;opacity:0.7"
     d="M 95.292969 112.26758 A 4.0004 4.0004 0 0 0 95.714844 108.51367 L 95.398438 107.72461 L 90.845703 112.26758 L 95.292969 112.26758 z " /><path
     id="application_x_spectrum_path20"
     style="fill:#66dd23;stroke-width:0.852459"
     d="M 107.14844 96 L 95.398438 107.72461 L 95.714844 108.51367 A 4.0004 4.0004 0 0 1 95.292969 112.26758 L 99.603516 112.26758 L 120 91.900391 L 120 83.175781 L 112 91.158203 L 112 96 L 107.14844 96 z " /><path
     id="application_x_spectrum_path23"
     style="fill:#66dd23;stroke-width:0.852459;opacity:0.6"
     d="M 107.14844 96 L 112 96 L 112 91.158203 L 107.14844 96 z " /><path
     style="fill:#24f0ff;stroke-width:0.852459"
     d="m 99.314931,112.55905 h 8.524589 L 120,100.19604 v -8.50249 z"
     id="application_x_spectrum_path14-2-7" /><path
     id="application_x_spectrum_rect453-8-9"
     style="fill:#ba1c0e;stroke-width:0.814846;stroke-miterlimit:0.5;paint-order:stroke fill markers"
     d="m 76.145,109.99218 h 8.79702 l 0,6.00782 H 76.145 Z" /><path
     id="application_x_spectrum_rect453-3-9-2"
     style="fill:#817c0d;stroke-width:0.814846;stroke-miterlimit:0.5;paint-order:stroke fill markers"
     d="m 84.67265,109.99218 h 8.73717 l 0,6.00783 h -8.73717 z" /><path
     id="application_x_spectrum_rect453-3-6-73-0"
     style="fill:#3c8515;stroke-width:0.814846;stroke-miterlimit:0.5;paint-order:stroke fill markers"
     d="M 93.125052,109.99218 H 96 v 2.00781 h 4.02455 V 116 h -6.899498 z" /><path
     id="application_x_spectrum_rect453-3-6-7-6-2"
     style="fill:#00b2bf;stroke-width:0.814846;stroke-miterlimit:0.5;paint-order:stroke fill markers"
     d="m 99.869157,111.99999 8.520263,0 V 116 l -8.520263,0 z" /><rect
     y="110"
     x="32"
     height="6.0000076"
     width="64"
     id="application_x_spectrum_rect915"
     style="display:inline;fill:#111113;fill-opacity:1;stroke:none;stroke-width:1;stroke-linecap:butt;stroke-linejoin:round;stroke-miterlimit:4;stroke-dasharray:none;stroke-dashoffset:0;stroke-opacity:1;enable-background:new;opacity:0.8" /><path
     id="application_x_spectrum_path1"
     style="-inkscape-font-specification:Inter;fill:#313131;stroke-width:0.909091"
     d="m 38.667935,63.016857 0.115411,3.078835 -2.602983,-1.65838 -1.226918,2.17152 2.723722,1.420454 -2.725497,1.420455 1.232245,2.146661 2.599431,-1.656605 -0.115411,3.07706 h 2.462712 l -0.117187,-3.07706 2.601207,1.656605 1.232244,-2.146661 -2.727273,-1.42223 2.723722,-1.418679 -1.226917,-2.17152 -2.602983,1.65838 0.117187,-3.078835 z" /><path
     id="application_x_spectrum_path2"
     style="-inkscape-font-specification:Inter;fill:#313131;stroke-width:0.909091"
     d="m 86.768636,63.028561 0.115411,3.078835 -2.602983,-1.65838 -1.226918,2.17152 2.723722,1.420454 -2.725497,1.420455 1.232245,2.146661 2.599431,-1.656605 -0.115411,3.07706 h 2.462712 l -0.117187,-3.07706 2.601207,1.656605 1.232244,-2.146661 -2.727273,-1.42223 2.723722,-1.418679 -1.226917,-2.17152 -2.602983,1.65838 0.117187,-3.078835 z" /></svg>

<svg xmlns="http://www.w3.org/2000/svg" xmlns:xlink="http://www.w3.org/1999/xlink" xml:space="preserve" width="128" height="128" viewBox="0 0 128 128"><defs><linearGradient xlink:href="#application_x_spectrum_a" id="application_x_spectrum_b" x1="8" x2="120" y1="264" y2="264" gradientTransform="translate(0 -160)" gradientUnits="userSpaceOnUse"/><linearGradient id="application_x_spectrum_a" x1="9.197" x2="119.482" y1="112.655" y2="112.655" gradientTransform="translate(-147 5)" gradientUnits="userSpaceOnUse"><stop offset="0" stop-color="#5e5c64" style="stop-color:#606060;stop-opacity:1"/><stop offset=".038" stop-color="#77767b" style="stop-color:#797979;stop-opacity:1"/><stop offset=".073" stop-color="#3d3846" style="stop-color:#333;stop-opacity:1"/><stop offset=".929" stop-color="#241f31" style="stop-color:#000;stop-opacity:1"/><stop offset=".971" stop-color="#5e5c64" style="stop-color:#606060;stop-opacity:1"/><stop offset="1" stop-color="#5e5c64" style="stop-color:#606060;stop-opacity:1"/></linearGradient><clipPath id="application_x_spectrum_c" clipPathUnits="userSpaceOnUse"><path d="M208 4h96v48h-96z" style="opacity:1;fill:#949390;fill-opacity:1;stroke:none;stroke-width:15.99999905;stroke-linecap:round;stroke-linejoin:round;stroke-miterlimit:4;stroke-dasharray:none;stroke-dashoffset:11.19999981;stroke-opacity:1"/></clipPath></defs><rect width="112" height="24" x="8" y="92" rx="8" ry="8" style="display:inline;fill:url(#application_x_spectrum_b);fill-opacity:1;stroke:none;stroke-width:.25;stroke-linejoin:round;stroke-miterlimit:4;stroke-dasharray:1,.5;stroke-dashoffset:0;stroke-opacity:1"/><rect width="112" height="84" x="8" y="28" rx="8" ry="8.842" style="display:inline;fill:#36343d;fill-opacity:1;stroke:none;stroke-width:.262829;stroke-linejoin:round;stroke-miterlimit:4;stroke-dasharray:1.05131,.525657;stroke-dashoffset:0;stroke-opacity:1"/><path d="M36 110h56l-4-10H40Z" style="display:inline;fill:#202023;fill-opacity:1;stroke:#202023;stroke-width:8;stroke-linecap:round;stroke-linejoin:round;stroke-opacity:1"/><path d="M24 36h80l8 8v52H16V44Z" style="display:inline;fill:#9a9996;fill-opacity:1;stroke:none;stroke-width:.25;stroke-linejoin:round;stroke-miterlimit:4;stroke-dasharray:1,.5;stroke-dashoffset:0;stroke-opacity:1"/><g style="display:inline" transform="translate(0 -164)"><path d="M16 216h96v32H16z" style="display:inline;opacity:1;fill:#424048;fill-opacity:1;stroke:none;stroke-width:1.06904;stroke-linecap:butt;stroke-linejoin:round;stroke-miterlimit:4;stroke-dasharray:none;stroke-dashoffset:0;stroke-opacity:1"/><circle cx="40" cy="232" r="6" style="display:inline;opacity:1;fill:#f6f5f4;fill-opacity:1;stroke:none;stroke-width:.25;stroke-linejoin:round;stroke-miterlimit:4;stroke-dasharray:1,.5;stroke-dashoffset:0;stroke-opacity:1"/><circle cx="88" cy="232" r="6" style="display:inline;opacity:1;fill:#f6f5f4;fill-opacity:1;stroke:none;stroke-width:.25;stroke-linejoin:round;stroke-miterlimit:4;stroke-dasharray:1,.5;stroke-dashoffset:0;stroke-opacity:1"/><path d="M52 226h24v12H52z" style="display:inline;opacity:1;fill:#949390;fill-opacity:1;stroke:none;stroke-width:4;stroke-linecap:round;stroke-linejoin:round;stroke-miterlimit:4;stroke-dasharray:none;stroke-dashoffset:11.2;stroke-opacity:1"/><path d="M272 28c0 61.856-50.144 112-112 112S48 89.856 48 28 98.144-84 160-84 272-33.856 272 28" clip-path="url(#application_x_spectrum_c)" style="display:inline;opacity:.5;fill:#424048;fill-opacity:1;stroke:none;stroke-width:1;stroke-linejoin:round;stroke-miterlimit:4;stroke-dasharray:4,2;stroke-dashoffset:0;stroke-opacity:1" transform="matrix(.25 0 0 .25 0 225)"/></g><path d="m40.502 39.375 2.696 4.314-2.696 4.313h2.157l1.617-2.589 1.618 2.589h2.157l-2.696-4.313 2.696-4.314h-2.157l-1.618 2.589-1.617-2.589Zm-8.627 0h7.549v1.078l-4.853 5.931h4.853v1.618h-7.549v-1.078l4.853-5.931h-4.853Z" style="fill:#202023;stroke-width:.53919;fill-opacity:1"/><path d="m93.064 101.889-1.35-3.375a4 4 0 0 0-2.04-2.098L76.139 110h8.802z" style="fill:#f24c3d;stroke-width:.852459;opacity:.7"/><path d="m112 82.98 8-7.988v-9.01l-8 8.03zM90.088 96l-.414.416a4 4 0 0 1 2.04 2.098l1.35 3.375L98.961 96z" style="fill:#f24c3d;stroke-width:.852459"/><path d="M90.088 96h8.873L112 82.98v-8.968z" style="fill:#f24c3d;stroke-width:.852459;opacity:.6"/><path d="m95.484 107.936-2.502-6.254L84.664 110h8.746z" style="fill:#e6df15;stroke-width:.852459;opacity:.7"/><path d="m112 91.486 8-7.968v-8.854l-8 8zM98.664 96l-5.682 5.682 2.502 6.254L107.467 96z" style="fill:#e6df15;stroke-width:.852459"/><path d="M98.664 96h8.803L112 91.486v-8.822z" style="fill:#e6df15;stroke-width:.852459;opacity:.6"/><path d="M95.293 112.268a4 4 0 0 0 .422-3.754l-.317-.79-4.552 4.544z" style="fill:#66dd23;stroke-width:.852459;opacity:.7"/><path d="m107.148 96-11.75 11.725.317.789a4 4 0 0 1-.422 3.754h4.31L120 91.9v-8.724l-8 7.982V96z" style="fill:#66dd23;stroke-width:.852459"/><path d="M107.148 96H112v-4.842z" style="fill:#66dd23;stroke-width:.852459;opacity:.6"/><path d="M99.315 112.559h8.525L120 100.196v-8.502z" style="fill:#24f0ff;stroke-width:.852459"/><path d="M76.145 109.992h8.797V116h-8.797Z" style="fill:#ba1c0e;stroke-width:.814846;stroke-miterlimit:.5;paint-order:stroke fill markers"/><path d="M84.673 109.992h8.737V116h-8.737z" style="fill:#817c0d;stroke-width:.814846;stroke-miterlimit:.5;paint-order:stroke fill markers"/><path d="M93.125 109.992H96V112h4.025v4h-6.9z" style="fill:#3c8515;stroke-width:.814846;stroke-miterlimit:.5;paint-order:stroke fill markers"/><path d="M99.87 112h8.52v4h-8.52z" style="fill:#00b2bf;stroke-width:.814846;stroke-miterlimit:.5;paint-order:stroke fill markers"/><path d="M32 110h64v6H32z" style="display:inline;fill:#111113;fill-opacity:1;stroke:none;stroke-width:1;stroke-linecap:butt;stroke-linejoin:round;stroke-miterlimit:4;stroke-dasharray:none;stroke-dashoffset:0;stroke-opacity:1;opacity:.8"/><path d="m38.668 63.017.115 3.079-2.603-1.659-1.227 2.172 2.724 1.42-2.725 1.42 1.232 2.147 2.6-1.656-.116 3.077h2.463l-.118-3.077 2.602 1.656 1.232-2.146-2.727-1.422 2.723-1.42-1.227-2.17-2.603 1.658.118-3.08zm48.101.012.115 3.078-2.603-1.658-1.227 2.172 2.724 1.42-2.726 1.42 1.233 2.147 2.599-1.656-.115 3.077h2.462l-.117-3.077 2.601 1.656 1.233-2.147-2.728-1.422 2.724-1.418-1.227-2.172-2.603 1.658.117-3.078z" style="-inkscape-font-specification:Inter;fill:#313131;stroke-width:.909091"/></svg>
